X: 1979
T: Yegâh Seyir
C: Rauf Yektâ
O: Turkey
F: http://compmusic.upf.edu/node/140
N: yegah--seyir--semai--1--rauf_yekta
N: makam= yegah
N: form= seyir
N: usul= semai = 3/4
M: 3/4
L: 1/16
K: C _2/4B ^f  
Q: 1/4=120
%%MIDI tuningsystem comma53
d8 d4  | e8 e4  | ^3/4f8 e4  | d8 z4  | e8 d4  | \
w:   |   |   |   |   | 
e4 ^3/4f4 g4  | a8 g4  | ^3/4f8 z4  | g4 ^3/4f4 e4  | \
w:   |   |   |   | 
^3/4f4 g8  | 
w:   | 
a8 b4  | a4 g8  | ^3/4f8 e4  | ^3/4f4 g8  | \
w:   |   |   |   | 
a4 g4 ^3/4f4  | e4 d8  | c8 d4  | e8 d4  | \
w:   |   |   |   | 
d8 c4  | B4 A8  | 
w:   |   | 
A8 B4  | c8 B4  | B8 A4  | G4 ^3/4F8  | E8 ^3/4F4  | \
w:   |   |   |   |   | 
G4 A4 B4  | A8 G4  | ^3/4F4 E4 D4  | E8 G4  | \
w:   |   |   |   | 
^3/4F8 E4  | 
w:   | 
D12  | D8 z4  | |


